!!!!SEGMENT: pl-wtm--r-2158_wysocki-kasper-napoleon--poszlam-mrokiem-miedzy-skaly.krn
!!!cenid: 18xx:2076
!!!COM: Wysocki, Kasper Napoleon
!!!COM-rismID: pe41024789
!!!CDT: 1810-1850
!!!CNT: Polish
!!!OTL: Poszłam mrokiem między skały
!!!PDT:
!!!AGN: Secular
!!!SMS-siglum: PL-Wtm
!!!SMS-shelfmark: R 2158
!!!SMS-shelfwork: W
!!!SMS-variant:
!!!SMS-altvar:
!!!NIFC-rismSourceID: 1001141395
!!!NIFC-islandoraID: pl-wtm:30074
!!!URL-pdf-islandora: https://repozytorium.nifc.pl/islandora/object/pl-wtm%3A30074/datastream/PDF/view
!!!URL-scan: https://polish.musicsources.pl/pl/lokalizacje/galeria/rekopisy/6586 @EN{Scan on Polish Music Sources Website} @PL{Skany w portalu Dziedzictwo Muzyki Polskiej w otwartym dostępie}
!!!ONB-nifc:
!!!AIN: 1 empty 1 vox
!!!key:
**kern	**kern	**kern	**text
*part2	*part2	*part1	*part1
*staff3	*staff2	*staff1	*staff1
*Iempty	*Iforte	*Ivox	*
*	*I"fp.	*I"gł.	*
*clefF4	*clefG2	*clefG2	*
*k[f#]	*k[f#]	*k[f#]	*
*G:	*G:	*G:	*
*M3/4	*M3/4	*M3/4	*
*all\right	*all\right	*all\right	*
=1	=1	=1	=1
*2\right	*	*	*
2.B 2.D 2.GG\	8r	2.ryy	.
.	16r	.	.
.	16b\	.	.
*	*2\right	*	*
.	2dd\	.	.
=2	=2	=2	=2
2.B 2.D 2.GG\	8r	2.ryy	.
.	16r	.	.
.	16b\	.	.
.	2dd\	.	.
=3	=3	=3	=3
*	*^	*	*
!LO:N:n=1:vis=2	!	!	!	!
2.D 2.GG\	4d/	8B</L	2.ryy	.
.	.	8A</	.	.
.	4d/	8G</	.	.
.	.	8D</	.	.
.	4d/	8A</	.	.
.	.	8D</J	.	.
=4	=4	=4	=4	=4
!LO:N:n=1:vis=2	!	!	!	!
2.D 2.GG\	4d/	8B</L	2.ryy	.
.	.	8A</	.	.
.	4d/	8G</	.	.
.	.	8D</	.	.
.	4d/	8A</	.	.
.	.	8D</J	.	.
=5	=5	=5	=5	=5
*^	*	*	*	*
!	!LO:N:n=1:vis=2	!	!	!	!
8B/L	2.D 2.GG\	8g/L	4d\	2.ryy	.
8A/	.	8a/J	.	.	.
8G/	.	4b 4d\	2ryy	.	.
8D/	.	.	.	.	.
8B/	.	4dd [>4d\	.	.	.
8D/J	.	.	.	.	.
*v	*v	*	*	*	*
*	*v	*v	*	*
=6	=6	=6	=6
!LO:N:vis=2	!	!	!
2.A 2.D\	2.a 2.f# 2.d/]	2.ryy	.
=7	=7	=7	=7
*	*^	*	*
2.E 2.AA\	4e/	8c</L	2.ryy	.
.	.	8B</	.	.
.	4e/	8A</	.	.
.	.	8E</	.	.
.	4e/	8B</	.	.
.	.	8E</J	.	.
=8	=8	=8	=8	=8
2.E 2.AA\	4e/	8c</L	2.ryy	.
.	.	8B</	.	.
.	4e/	8A</	.	.
.	.	8E</	.	.
.	4e/	8B</	.	.
.	.	8E</J	.	.
!!LO:LB:g=original
=9	=9	=9	=9	=9
*^	*	*	*	*
8c/L	2E 2AA\	8a/L	4e\	2.ryy	.
8B/J	.	8b/J	.	.	.
4A/	.	4cc/	4e\	.	.
4c 4D\	4ryy	8b/L	4f#\	.	.
.	.	8a/J	.	.	.
*v	*v	*	*	*	*
=10	=10	=10	=10	=10
*	*	*2\left	*	*
2.B 2.D 2.GG\	2.g/	2.g\	2.ryy	.
=11	=11	=11	=11	=11
2.GG 2.GGG/	4d/	8B</L	4g\	Po-
.	.	8A</	.	.
.	4d/	8G</	4b\	.
.	.	8D</	.	.
.	4d/	8A</	4cc\	-szłam
.	.	8D</J	.	.
=12	=12	=12	=12	=12
*	*	*	*2\right	*
2.BB 2.BBB/	2d/	8B</L	2dd\	mro-
.	.	8A</	.	.
.	.	8G</	.	.
.	.	8D</	.	.
.	4d#X/	8B</	4dd#X\	-kiem
.	.	8G</J	.	.
=13	=13	=13	=13	=13
!LO:N:n=1:vis=2.	!	!	!	!
2C 2CC/	4e/	8c</L	4.ee\	mię-
.	.	8B</	.	.
.	4e/	8A</	.	.
.	.	8E</	8dd#X\	.
4C#X 4CC#y/	4e/	8G</	4ee\	-dzy
.	.	8E</J	.	.
=14	=14	=14	=14	=14
*	*	*2\right	*	*
!LO:N:n=2:vis=2.	!LO:N:n=2:vis=2.	!	!	!
8FF#L 8DD\	8A<L 8F#</	2.D<\	(2a\	ska-
8GG\	8B</	.	.	.
8AA\	8c</	.	.	.
8FF#\	8A</	.	.	.
8GG\	8B</	.	8b\)	.
8AA\J	8c</J	.	8cc\	-ły
*	*v	*v	*	*
=15	=15	=15	=15
4BB 4BBB/	8r<	4dd\	W_ska-
.	8d< 8B< 8G</	.	.
4C 4CC/	8r<	4cc\	-łach
.	8c< 8A< 8E</	.	.
4C#X 4CC#y/	8r<	4b\	flet
.	8B< 8G< 8E</	.	.
=16	=16	=16	=16
4AA 4AAA/	8r<	4a\	się
.	8A< 8G< 8E</	.	.
4C#X 4CC#y/	8r<	4b\	oz-
.	8A< 8G< 8E</	.	.
4AA 4CCny/	8r<	4a\	-wał
.	8A< 8G< 8E</	.	.
!!LO:LB:g=original
=17	=17	=17	=17
*	*^	*	*
4D 4DD\	8F#<L 8D</	2ryy	4.dd\	z_da-
.	8G< 8E</	.	.	.
2AA 2AAA/	8A< 8F#</	.	.	.
.	8d<J 8F#</	.	8f#/L	.
.	4e 4c#X/	8G</L	8d/	.
.	.	8A</J	8a/J	.
=18	=18	=18	=18	=18
*^	*	*	*	*
2.D 2.DD\	8r	2.d 2.F#</	8r	4d/	-la
.	8FF#\L	.	8A</L	.	.
.	8GG\	.	8B</	4r	.
.	8AA\	.	8c</	.	.
.	8GG\	.	8B</	4r	.
.	8FF#\J	.	8A</J	.	.
*v	*v	*	*	*	*
=19	=19	=19	=19	=19
2.GG 2.GGG/	4d/	8B</L	4g\	Nu-
.	.	8A</	.	.
.	4d/	8G</	4b\	.
.	.	8D</	.	.
.	4d/	8A</	4cc\	-cił
.	.	8D</J	.	.
=20	=20	=20	=20	=20
2.BB 2.BBB/	2d/	8B</L	2dd\	pa-
.	.	8A</	.	.
.	.	8G</	.	.
.	.	8D</	.	.
.	4d#X/	8B</	4dd#X\	-sterz
.	.	8G</J	.	.
=21	=21	=21	=21	=21
2C 2CC/	4e/	8c</L	4ee\	za-
.	.	8B</	.	.
.	4r	8A</	4dd#X\	.
.	.	8E</	.	.
4C 4CC/	4e/	8A#X</	4ee\	-du-
.	.	8E</J	.	.
=22	=22	=22	=22	=22
2FF# 2FFF#/	2f#/	8c#X<L 8A#X</	2ff#\	-mia-
.	.	8F#</	.	.
.	.	8c#< 8A#</	.	.
.	.	8F#</	.	.
4AA#X 4AAA#y/	4e/	8c#< 8A#</	4ee\	-ły
.	.	8F#</J	.	.
=23	=23	=23	=23	=23
!LO:N:n=2:vis=2.	!	!	!	!
4.BB 4.BBB\	8d/L	2.F#</	4dd\	A
.	8B/J	.	.	.
.	4A#X</	.	4cc#X\	piosn-
8C#X\L	.	.	.	.
8D\	8B</L	.	4b\	-ki
8F#\J	8d</J	.	.	.
*	*v	*v	*	*
!!LO:LB:g=original
=24	=24	=24	=24
!LO:N:n=2:vis=2.	!LO:N:n=2:vis=2.	!	!
8EL 8FF#\	8c#XL 8F#/	4cc#X\	się
8D\	8B/	.	.
8C#X\	8A#X/	4.ff#\	roz-
8BB#X\	8G##X/	.	.
8C#\	8A#/	.	.
8FF#\J	8c#/J	8a#X/	-le-
=25	=25	=25	=25
.	.	8qqcc#X/	.
[2.F# [2.D [>2.BB\	8B/L	4b\	-ga-
.	8d/	.	.
.	8f#/	4b\	-ły
.	8b/	.	.
.	8dd/	4r	.
.	8ff#/J	.	.
=26	=26	=26	=26
4F#] 4D] 4BB\]	4bb\	4r	.
4r	4r	4r	.
4A 4F# 4D 4C\	8r	8a/	ci-
.	[8d/	8d/	-cho
=27	=27	=27	=27
4G 4D 4BB\	4d/]	4g/	tak
4r	4r	4r	.
4r	4r	4r	.
=28	=28	=28	=28
*^	*	*	*
*Xtuplet	*	*	*	*
12C/L	4GG\	8r	4dd\	la
12D/	.	.	.	.
.	.	32dd\LLL	.	.
.	.	32ee\	.	.
12A/J	.	.	.	.
.	.	32ff#\	.	.
.	.	32gg\JJJ	.	.
12C/L	4GG\	4aa\	8cc#X\	la
12D/	.	.	.	.
.	.	.	8dd\	la
12A/J	.	.	.	.
12C/L	4GG\	4ddd 4dd\	8ee\	la
12D/	.	.	.	.
.	.	.	8dd\	la
12A/J	.	.	.	.
=29	=29	=29	=29	=29
4GG/	12GG\L	8.bb\L	4gg\	la
.	12D\	.	.	.
.	12B\J	.	.	.
.	.	16aa\Jk	.	.
4GG/	12GG\L	4gg\	4b\	la
.	12D\	.	.	.
.	12B\J	.	.	.
4GG/	12GG\L	4bb\	4dd\	la
.	12D\	.	.	.
.	12B\J	.	.	.
!!LO:PB:g=original
=30	=30	=30	=30	=30
4GG/	12GG\L	8.bb\L	4gg\	la
.	12D\	.	.	.
.	12B\J	.	.	.
.	.	16aa\Jk	.	.
4GG/	12GG\L	4gg\	4b\	la
.	12D\	.	.	.
.	12B\J	.	.	.
4GG/	12GG\L	[4bb\	[4dd\	la
.	12D\	.	.	.
.	12B\J	.	.	.
=31	=31	=31	=31	=31
12C/L	4GG\	8bb\]	8dd\]	.
12D/	.	.	.	.
.	.	4aa\	8a/	la
12A/J	.	.	.	.
12C/L	4GG\	.	8g#X/	la
12D/	.	.	.	.
.	.	8dd\L	8a/	la
12A/J	.	.	.	.
12C/L	4GG\	8ddd\	8b/	la
12D/	.	.	.	.
.	.	[8ddd\J	8a/	la
12A/J	.	.	.	.
=32	=32	=32	=32	=32
4GG/	12GG\L	8ddd\L_	8.g/L	la
.	12D\	.	.	.
.	.	32ddd\LL]	.	.
.	.	32eee\	.	.
.	12B\J	.	.	.
.	.	32ddd\	16a/Jk	.
.	.	32ccc\JJJ	.	.
4GG/	12GG\L	2bb\	4b/	la
.	12D\	.	.	.
.	12B\J	.	.	.
4GG/	12GG\L	.	8.ee\	la
.	12D\	.	.	.
.	12B\J	.	.	.
.	.	.	16dd\	la
=33	=33	=33	=33	=33
12C/L	4GG\	8r	4dd\	la
12D/	.	.	.	.
.	.	32dd\LLL	.	.
.	.	32ee\	.	.
12A/J	.	.	.	.
.	.	32ff#\	.	.
.	.	32gg\JJJ	.	.
12C/L	4GG\	4aa\	8cc#X\	la
12D/	.	.	.	.
.	.	.	8dd\	la
12A/J	.	.	.	.
12C/L	4GG\	[4ddd [>4dd\	8ee\	la
12D/	.	.	.	.
.	.	.	8dd\	la
12A/J	.	.	.	.
=34	=34	=34	=34	=34
4GG/	12GG\L	8ddd] 8dd\]	4.gg\	la
.	12D\	.	.	.
.	.	4bb 4b\	.	.
.	12B\J	.	.	.
4C/	12C\L	.	.	.
.	12E\	.	.	.
.	.	8aa 8a\	8ee\	la
.	12A\J	.	.	.
4C/	12C\L	8eeL 8e/	8cc\	la
.	12E\	.	.	.
.	.	[8ccJ [>8c/	8a\	la
.	12A\J	.	.	.
!!LO:LB:g=original
=35	=35	=35	=35	=35
4D/	12D\L	8cc] 8c/]	8g/L	la
.	12G\	.	.	.
.	.	4b 4B/	8d/J	.
.	12B\J	.	.	.
4D/	12D\L	.	4.b\	la
.	12G\	.	.	.
.	.	4dd 4d/	.	la
.	12B\J	.	.	.
4D/	12D\L	.	.	.
.	12A\	.	.	.
.	.	8ff# 8f#/	8a\	la
.	12c\J	.	.	.
=36	=36	=36	=36	=36
!LO:N:vis=6	!	!	!	!
12GG/	12GG\L	2.gg 2.g/	4g/	la
[6D/	12D\	.	.	.
.	N[>12B\J	.	.	.
2BN] 2D] 2GG\	2ryy	.	4r	.
.	.	.	4r	.
=37	=37	=37	=37	=37
12C/L	4GG\	8r	2.ryy	.
12D/	.	.	.	.
.	.	16r	.	.
12A/J	.	.	.	.
.	.	16a/	.	.
12C/L	4GG\	2d/	.	.
12D/	.	.	.	.
12A/J	.	.	.	.
12C/L	4GG\	.	.	.
12D/	.	.	.	.
12A/J	.	.	.	.
=38	=38	=38	=38	=38
4GG/	12GG\L	8.g/L	2.ryy	.
.	12D\	.	.	.
.	12B\J	.	.	.
.	.	16a/Jk	.	.
4GG/	12GG\L	2b\	.	.
.	12D\	.	.	.
.	12B\J	.	.	.
4GG/	12GG\L	.	.	.
.	12D\	.	.	.
.	12B\J	.	.	.
=39	=39	=39	=39	=39
12C/L	4GG\	8a\L	2.ryy	.
12D/	.	.	.	.
.	.	16qqdd/LL	.	.
.	.	16qqee/JJ	.	.
.	.	8dd\	.	.
12A/J	.	.	.	.
12C/L	4GG\	8cc#X\	.	.
12D/	.	.	.	.
.	.	8dd\	.	.
12A/J	.	.	.	.
12C/L	4GG\	8ee\	.	.
12D/	.	.	.	.
.	.	8dd\J	.	.
12A/J	.	.	.	.
=40	=40	=40	=40	=40
2ryy	12GG\L	8.gg\L	2.ryy	.
.	12D\	.	.	.
.	12B\J	.	.	.
.	.	16dd\Jk	.	.
.	12GG\L	[2b\	.	.
.	12D\	.	.	.
.	12B\J	.	.	.
4GG/	12GG\L	.	.	.
.	12D\	.	.	.
.	12B\J	.	.	.
=41	=41	=41	=41	=41
12C/L	4GG\	8.b\L]	2.ryy	.
12D/	.	.	.	.
12A/J	.	.	.	.
.	.	16a\Jk	.	.
12C/L	4GG\	2d/	.	.
12D/	.	.	.	.
12A/J	.	.	.	.
12C/L	4GG\	.	.	.
12D/	.	.	.	.
12A/J	.	.	.	.
!!LO:LB:g=original
=42	=42	=42	=42	=42
4GG/	12GG\L	8.g/L	2.ryy	.
.	12D\	.	.	.
.	12B\J	.	.	.
.	.	16a/Jk	.	.
2ryy	12GG\L	4b\	.	.
.	12D\	.	.	.
.	12B\J	.	.	.
.	12C#X\L	[4ee [>4a#X\	.	.
.	12E\	.	.	.
.	12A#X\J	.	.	.
=43	=43	=43	=43	=43
4D/	12D\L	8ee]L 8a#\]	2.ryy	.
.	12G\	.	.	.
.	.	8dd#X\	.	.
.	12B\J	.	.	.
4D/	12D\L	8ddn 8b\	.	.
.	12G\	.	.	.
.	.	8cc#X\	.	.
.	12B\J	.	.	.
4D/	12F#\L	8.ccn\	.	.
.	12A\	.	.	.
.	12c\J	.	.	.
.	.	16f#X\Jk	.	.
=44	=44	=44	=44	=44
!LO:N:n=1:vis=4	!	!	!	!
12GG/	12GG\L	2.g/	2.ryy	.
[6D/	12D\	.	.	.
.	N[>12B\J	.	.	.
2BN] 2D] 2GG\	2ryy	.	.	.
*v	*v	*	*	*
*kcancel	*kcancel	*kcancel	*
=45||	=45||	=45||	=45||
*k[b-e-]	*k[b-e-]	*k[b-e-]	*
*	*^	*	*
2.GG 2.GGG/	2d/	8B-</L	4g/	Ten
.	.	8A</	.	.
.	.	8G</	4b-/	.
.	.	8D</	.	.
.	4d/	8A</	4cc/	glos
.	.	8D</J	.	.
=46	=46	=46	=46	=46
2.BB- 2.BBB-/	2d/	8B-</L	4.dd\	szczę-
.	.	8A</	.	.
.	.	8G</	.	.
.	.	8D</	8cc#X\	.
.	4d/	8B-</	4dd\	-ścia
.	.	8D</J	.	.
=47	=47	=47	=47	=47
2.C 2.CC/	2e-/	8c</L	4.ee-\	za-
.	.	8B-</	.	.
.	.	8A</	.	.
.	.	8E-</	8dd\	.
!	!	!	!LO:TUP:a:problem=klamra łukowa	!
.	4e-/	8c</	12ff\L	.
.	.	.	12ee-\J	.
.	.	8E-</J	.	.
.	.	.	12cc\	-milkł
*	*v	*v	*	*
=48	=48	=48	=48
!LO:N:n=1:vis=2.	!	!	!
!LO:N:n=3:vis=2	!LO:N:n=2:vis=2.	!	!
8DL 8FF#X 8DD\	8A<L 8F#X</	4.a\	wcześ-
8GG\	8B-</	.	.
8AA\	8c</	.	.
8GG\	8B-</	8b-\L	.
8FF#\	8A</	8cc\J	.
8EE-\J	8G</J	8cc#X\	-nie
!!LO:LB:g=original
=49	=49	=49	=49
4BB- 4BBB-/	8r<	4dd\	Pa-
.	8d< 8B-< 8G</	.	.
4AA 4AAA/	8r<	4cc\	-sterz
.	8f#X 8d 8c< 8A</	.	.
4GG 4GGG/	8r<	4b-\	dziś
.	8g 8d 8B-/	.	.
=50	=50	=50	=50
!	!	!LO:N:vis=4.	!
4AA 4AAA/	8r	4a/	iest
.	8g 8en 8c#X 8A/	.	.
4C#X 4CC#y/	8r	8g#X/L	z_da-
.	8g 8e 8c# 8A/	8a/	.
4AA 4AAA/	8r	8b-/J	.
.	8g 8e 8c# 8A/	8a/	-la
=51	=51	=51	=51
*	*^	*	*
4D 4DD/	8f#XL 8d/	4ryy	4.dd\	z_da-
.	8e-J 8A/	.	.	.
!	!	!LO:SIC:v:s=8F#	!	!
2AA 2AAA/	4d/	8F</L	.	.
.	.	8A</	8f#X/	.
!	!	!	!LO:TUP:b:problem=klamra łukowa	!
.	4e- 4c#X/	8G</	12a/L	.
.	.	.	12g/	.
.	.	8A</J	.	.
.	.	.	12en/J	.
*	*v	*v	*	*
=52	=52	=52	=52
8DL 8DD\	8d< 8F#X</	4d/	-la
8DD\	8D</L	.	.
8EE-\	8E-</	4r	.
8DD\	8D</	.	.
8EE-\	8E-</	4r	.
8DD\J	8D</J	.	.
=53	=53	=53	=53
*	*^	*	*
!	!LO:N:vis=2	!	!	!
2.GG 2.GGG/	2.d/	8B-</L	4g/	Lecz
.	.	8A</	.	.
.	.	8G</	4b-\	czy
.	.	8D</	.	.
.	.	8A</	4cc\	na
.	.	8D</J	.	.
=54	=54	=54	=54	=54
2.BB- 2.BBB-/	4d/	8B-</L	4dd\	ia-
.	.	8A</	.	.
.	4r	8G</	4cc#X\	.
.	.	8D</	.	.
.	4d/	8B-</	4dd\	-wie
.	.	8D</J	.	.
!!LO:PB:g=original
=55	=55	=55	=55	=55
2.C 2.CC/	2.e-/	8c</L	[2.ee-\	czy
.	.	8B-</	.	.
.	.	8A</	.	.
.	.	8E-</	.	.
.	.	8A</	.	.
.	.	8E-</J	.	.
=56	=56	=56	=56	=56
2.C 2.CC/	4e-/	8c</L	4ee-\]	.
.	.	8B-</	.	.
.	4r	8A</	8ff\L	we
.	.	8E-</	8ee-\	.
.	4e-/	8A</	8cc\J	.
.	.	8E-</J	8a/	śnie
*	*v	*v	*	*
=57	=57	=57	=57
4D 4DD/	8r<	4b-/	Brzmią
.	8B-< 8G</	.	.
4C 4CC/	8r<	4a/	w_mén
.	8A< 8G< 8E-</	.	.
4C#X 4CC#y/	8r<	4g/	u-
.	8G< 8En</	.	.
=58	=58	=58	=58
4D 4DD\	4A< 4F#X</	4a/	-chu
2C 2DD\	2A< 2F#< 2D</	8ee-\L	daw-
.	.	8dd\	.
.	.	8cc\J	.
.	.	8f#X/	-ne
=59	=59	=59	=59
.	.	8qqa/	.
2BB- 2GG\	2G< 2D</	4g/	pie-
.	.	4g/	-śnie
4r;	4r;yy	4r;	.
=60	=60	=60	=60
!LO:N:n=1:vis=2.	!	!	!
!LO:N:n=2:vis=2.	!	!	!
!LO:N:n=4:vis=2.	!	!	!
2D 2C 2FF#X 2DD/	8r	2dd\	za-
.	8d/L	.	.
.	8dd/	.	.
.	8d/	.	.
4AA/	8dd/	4f#X/	-wsze
.	8d/J	.	.
=61	=61	=61	=61
2D 2BB- 2GG/	2g/	4g/	tak
.	.	4r	.
4r	4r	4r	.
!!LO:LB:g=original
=62||	=62||	=62||	=62||
*k[f#]	*k[f#]	*k[f#]	*
*^	*	*	*
12C/L	4GG\	8r	4dd\	la
12D/	.	.	.	.
.	.	32dd\LLL	.	.
.	.	32ee\	.	.
12A/J	.	.	.	.
.	.	32ff#\	.	.
.	.	32gg\JJJ	.	.
12C/L	4GG\	4aa\	8cc#X\	la
12D/	.	.	.	.
.	.	.	8dd\	la
12A/J	.	.	.	.
12C/L	4GG\	4ddd 4dd\	8ee\	la
12D/	.	.	.	.
.	.	.	8dd\	la
12A/J	.	.	.	.
=63	=63	=63	=63	=63
4GG/	12GG\L	8.bb\L	4gg\	la
.	12D\	.	.	.
.	12B\J	.	.	.
.	.	16aa\Jk	.	.
4GG/	12GG\L	4gg\	4b\	la
.	12D\	.	.	.
.	12B\J	.	.	.
4GG/	12GG\L	[4bb\	[4dd\	la
.	12D\	.	.	.
.	12B\J	.	.	.
=64	=64	=64	=64	=64
12C/L	4GG\	8bb\]	8dd\]	.
12D/	.	.	.	.
.	.	4aa\	8a/	la
12A/J	.	.	.	.
12C/L	4GG\	.	8g#X/	la
12D/	.	.	.	.
.	.	8dd\L	8a/	la
12A/J	.	.	.	.
12C/L	4GG\	8ddd\	8b/	la
12D/	.	.	.	.
.	.	[8ddd\J	8a/	la
12A/J	.	.	.	.
=65	=65	=65	=65	=65
4GG/	12GG\L	8ddd\L_	8.g/L	la
.	12D\	.	.	.
.	.	32ddd\LL]	.	.
.	.	32eee\	.	.
.	12B\J	.	.	.
.	.	32ddd\	16a/Jk	.
.	.	32ccc\JJJ	.	.
4GG/	12GG\L	2bb\	4b\	la
.	12D\	.	.	.
.	12B\J	.	.	.
4GG/	12GG\L	.	8.ee\	la
.	12D\	.	.	.
.	12B\J	.	.	.
.	.	.	16dd\	la
=66	=66	=66	=66	=66
12C/L	4GG\	8r	4dd\	la
12D/	.	.	.	.
.	.	32dd\LLL	.	.
.	.	32ee\	.	.
12A/J	.	.	.	.
.	.	32ff#\	.	.
.	.	32gg\JJJ	.	.
12C/L	4GG\	4aa\	8cc#X\	la
12D/	.	.	.	.
.	.	.	8dd\	la
12A/J	.	.	.	.
12C/L	4GG\	[4ddd [>4dd\	8ee\	la
12D/	.	.	.	.
.	.	.	8dd\	la
12A/J	.	.	.	.
!!LO:LB:g=original
=67	=67	=67	=67	=67
4GG/	12GG\L	8ddd] 8dd\]	4.gg\	la
.	12D\	.	.	.
.	.	4bb 4b\	.	.
.	12B\J	.	.	.
4C/	12C\L	.	.	.
.	12E\	.	.	.
.	.	8aa 8a\	8ee\	la
.	12A\J	.	.	.
4C/	12C\L	8eeL 8e/	8cc\	la
.	12E\	.	.	.
.	.	[8ccJ [>8c/	8a\	la
.	12A\J	.	.	.
=68	=68	=68	=68	=68
4D/	12D\L	8cc] 8c/]	8g/L	la
.	12G\	.	.	.
.	.	4b 4B/	8d/J	.
.	12B\J	.	.	.
4D/	12D\L	.	8.ee\	la
.	12G\	.	.	.
.	.	4dd 4d/	.	.
.	12B\J	.	.	.
.	.	.	16dd\	la
4D/	12D\L	.	8b\L	la
.	12A\	.	.	.
.	.	8ff# 8f#/	8a\J	[[l]]
.	12c\J	.	.	.
=69	=69	=69	=69	=69
6GG/	12GG\L	2.gg 2.g\	4g/	la
.	N[>12D\	.	.	.
12ryy	N[>12B\J	.	.	.
2BN] 2DN] 2GG\	2ryy	.	4r	.
.	.	.	4r	.
=70	=70	=70	=70	=70
12C/L	4GG\	8r	2.ryy	.
12D/	.	.	.	.
.	.	16r	.	.
12A/J	.	.	.	.
.	.	16a/	.	.
12C/L	4GG\	[2dd\	.	.
12D/	.	.	.	.
12A/J	.	.	.	.
12C/L	4GG\	.	.	.
12D/	.	.	.	.
12A/J	.	.	.	.
=71	=71	=71	=71	=71
4GG/	12GG\L	8.dd\L]	2.ryy	.
.	12D\	.	.	.
.	12B\J	.	.	.
.	.	16b\Jk	.	.
4GG/	12GG\L	[2dd\	.	.
.	12D\	.	.	.
.	12B\J	.	.	.
4GG/	12GG\L	.	.	.
.	12D\	.	.	.
.	12B\J	.	.	.
=72	=72	=72	=72	=72
*	*	*^	*	*
12C/L	4GG\	8.dd\L]	4ryy	2.ryy	.
12D/	.	.	.	.	.
12A/J	.	.	.	.	.
.	.	[16a\Jk	.	.	.
12C/L	4GG\	4a/]	8e-X\L	.	.
12D/	.	.	.	.	.
.	.	.	[>8d\J	.	.
12A/J	.	.	.	.	.
12C/L	4GG\	8.b/L	4d\]	.	.
12D/	.	.	.	.	.
12A/J	.	.	.	.	.
.	.	16a/Jk	.	.	.
*	*	*v	*v	*	*
=73	=73	=73	=73	=73
4GG/	12GG\L	8.g/L	2.ryy	.
.	12D\	.	.	.
.	12B\J	.	.	.
.	.	16a/Jk	.	.
4GG/	12GG\L	4.b\	.	.
.	12D\	.	.	.
.	12B\J	.	.	.
4GG/	12GG\L	.	.	.
.	12D\	.	.	.
.	.	[8b\	.	.
.	12B\J	.	.	.
!!LO:LB:g=original
=74	=74	=74	=74	=74
12C/L	4GG\	8.b\L]	2.ryy	.
12D/	.	.	.	.
12A/J	.	.	.	.
.	.	16g\Jk	.	.
12C/L	4GG\	[2dd\	.	.
12D/	.	.	.	.
12A/J	.	.	.	.
12C/L	4GG\	.	.	.
12D/	.	.	.	.
12A/J	.	.	.	.
=75	=75	=75	=75	=75
4GG/	12GG\L	8.dd\L]	2.ryy	.
.	12D\	.	.	.
.	12B\J	.	.	.
.	.	16b\Jk	.	.
4C#X/	12C#\L	[2ee 2a#X\	.	.
.	12E\	.	.	.
.	12A#X\J	.	.	.
4C#/	12C#\L	.	.	.
.	12E\	.	.	.
.	12A#\J	.	.	.
=76	=76	=76	=76	=76
4D/	12D\L	8ee\L]	2.ryy	.
.	12F#\	.	.	.
.	.	8dd\	.	.
.	12B\J	.	.	.
12D\L	2ryy	8b\	.	.
12G\	.	.	.	.
.	.	8d\	.	.
12B\J	.	.	.	.
!	!	!LO:N:n=2:vis=8	!	!
4c 4A 4D\	.	8.b 8.f#\	.	.
.	.	16a\Jk	.	.
*v	*v	*	*	*
=77	=77	=77	=77
*	*^	*	*
2.D 2.GG\	8g/L	8B</L	2.ryy	.
.	8a/J	8A</	.	.
.	4b/	8G</	.	.
.	.	8D</	.	.
.	4dd\	8B</	.	.
.	.	8D</J	.	.
=78	=78	=78	=78	=78
2.D 2.GG\	8g/L	8B</L	2.ryy	.
.	8a/J	8A</	.	.
.	4b/	8G</	.	.
.	.	8D</	.	.
.	4dd\	8B</	.	.
.	.	8D</J	.	.
=79	=79	=79	=79	=79
!LO:N:n=2:vis=2.	!	!	!	!
4.D 4.GG\	8g/L	8B</L	2.ryy	.
.	8a/J	8A</J	.	.
.	8b\L	4G</	.	.
8C#X\	8eeJ 8a#X\	.	.	.
8F#L 8Cn/	8dd#XL 8an\	4ryy	.	.
8FnJ 8BB/	8ddnJ 8g#X\	.	.	.
=80	=80	=80	=80	=80
4A 4C\	8cc/L	4e\	2.ryy	.
.	8a/J	.	.	.
4B [>4D\	4g/	8e-X\L	.	.
.	.	[8d\J	.	.
4A 4D\]	8.b/L	4f# 4d\]	.	.
!	!LO:TX:t=P:problem=utwór urywa sie w takcie nr 80	!	!	!
.	16a/Jk	.	.	.
*	*v	*v	*	*
==	==	==	=
*-	*-	*-	*-
!!!system-decoration: s1{(s2,s3)}
!!!RDF**kern: > = above
!!!RDF**kern: < = below
!!!RDF**kern: N = linked
!!!ENC: Andrzej Kubiczek
!!!END: 2021-05-30
!!!ENC: Katarzyna Serwa
!!!END: 2021-05-10
